sources/svg/24x24/editor-outdent.svg

<!-- Generated by IcoMoon.io -->
<svg version="1.1" xmlns="http://www.w3.org/2000/svg" width="24" height="24" viewBox="0 0 24 24">
<title>editor-outdent</title>
<path d="M8.4 4.8v-1.2h-4.8v1.2h4.8zM20.4 6v-2.4h-10.8v2.4h10.8zM8.4 8.4h-2.4v-2.4l-4.8 4.2 4.8 4.2v-2.4h2.4v-3.6zM20.4 9.6v-2.4h-10.8v2.4h10.8zM18 13.2v-2.4h-8.4v2.4h8.4zM20.4 16.8v-2.4h-10.8v2.4h10.8zM8.4 16.8v-1.2h-4.8v1.2h4.8zM13.2 20.4v-2.4h-3.6v2.4h3.6z"/>
</svg>

<?xml version="1.0" encoding="utf-8"?>
<!-- Generator: Adobe Illustrator 21.1.0, SVG Export Plug-In . SVG Version: 6.00 Build 0)  -->
<svg version="1.1" id="Layer_1" xmlns="http://www.w3.org/2000/svg" xmlns:xlink="http://www.w3.org/1999/xlink" x="0px" y="0px"
	 width="24px" height="24px" viewBox="0 0 24 24" enable-background="new 0 0 24 24" xml:space="preserve">
<title>editor-outdent</title>
<path d="M8.5,4.8V3.6H3.7v1.2H8.5z M20.5,6V3.6H9.7V6H20.5z M8.5,8.4H6.1V6l-4.8,4.2l4.8,4.2V12h2.4V8.4z M20.5,9.6V7.2H9.7v2.4
	H20.5z M18.1,13.2v-2.4H9.7v2.4H18.1z M20.5,16.8v-2.4H9.7v2.4H20.5z M8.5,16.8v-1.2H3.7v1.2H8.5z M13.3,20.4V18H9.7v2.4H13.3z"/>
</svg>
